posts/RAID-10-VS-RAID-01/RAID-10-BAD.svg

<svg xmlns="http://www.w3.org/2000/svg" xmlns:xlink="http://www.w3.org/1999/xlink" width="782" height="380" viewBox="-0.5 -0.5 782 380" style="background-color:#fff"><path fill="#FFF" stroke="#b3b3b3" stroke-width="2" stroke-dasharray="6 6" pointer-events="all" d="M270 90h240v200H270zM10 90h240v200H10z"/><path d="M30 140c0-16.57 17.91-30 40-30 10.61 0 20.78 3.16 28.28 8.79C105.79 124.41 110 132.04 110 140v100c0 16.57-17.91 30-40 30s-40-13.43-40-30Z" fill="#f33" stroke="#000" stroke-width="2" stroke-miterlimit="10" pointer-events="all"/><path d="M110 140c0 16.57-17.91 30-40 30s-40-13.43-40-30" fill="none" stroke="#000" stroke-width="2" stroke-miterlimit="10" pointer-events="all"/><path d="M150 140c0-16.57 17.91-30 40-30 10.61 0 20.78 3.16 28.28 8.79C225.79 124.41 230 132.04 230 140v100c0 16.57-17.91 30-40 30s-40-13.43-40-30Z" fill="#9f3" stroke="#000" stroke-width="2" stroke-miterlimit="10" pointer-events="all"/><path d="M230 140c0 16.57-17.91 30-40 30s-40-13.43-40-30" fill="none" stroke="#000" stroke-width="2" stroke-miterlimit="10" pointer-events="all"/><path d="M290 140c0-16.57 17.91-30 40-30 10.61 0 20.78 3.16 28.28 8.79C365.79 124.41 370 132.04 370 140v100c0 16.57-17.91 30-40 30s-40-13.43-40-30Z" fill="#9f3" stroke="#000" stroke-width="2" stroke-miterlimit="10" pointer-events="all"/><path d="M370 140c0 16.57-17.91 30-40 30s-40-13.43-40-30" fill="none" stroke="#000" stroke-width="2" stroke-miterlimit="10" pointer-events="all"/><path fill="#FFF" stroke="#b3b3b3" stroke-width="2" stroke-dasharray="6 6" pointer-events="all" d="M530 90h240v200H530z"/><path d="M410 140c0-16.57 17.91-30 40-30 10.61 0 20.78 3.16 28.28 8.79C485.79 124.41 490 132.04 490 140v100c0 16.57-17.91 30-40 30s-40-13.43-40-30Z" fill="#f33" stroke="#000" stroke-width="2" stroke-miterlimit="10" pointer-events="all"/><path d="M490 140c0 16.57-17.91 30-40 30s-40-13.43-40-30" fill="none" stroke="#000" stroke-width="2" stroke-miterlimit="10" pointer-events="all"/><path d="M550 140c0-16.57 17.91-30 40-30 10.61 0 20.78 3.16 28.28 8.79C625.79 124.41 630 132.04 630 140v100c0 16.57-17.91 30-40 30s-40-13.43-40-30Z" fill="#9f3" stroke="#000" stroke-width="2" stroke-miterlimit="10" pointer-events="all"/><path d="M630 140c0 16.57-17.91 30-40 30s-40-13.43-40-30" fill="none" stroke="#000" stroke-width="2" stroke-miterlimit="10" pointer-events="all"/><path d="M670 140c0-16.57 17.91-30 40-30 10.61 0 20.78 3.16 28.28 8.79C745.79 124.41 750 132.04 750 140v100c0 16.57-17.91 30-40 30s-40-13.43-40-30Z" fill="#f33" stroke="#000" stroke-width="2" stroke-miterlimit="10" pointer-events="all"/><path d="M750 140c0 16.57-17.91 30-40 30s-40-13.43-40-30" fill="none" stroke="#000" stroke-width="2" stroke-miterlimit="10" pointer-events="all"/><path d="M130.06 330v-20h60v-40" fill="none" stroke="#000" stroke-width="2" stroke-miterlimit="10" pointer-events="stroke"/><path fill="none" pointer-events="all" d="M70 330h120v40H70z"/><switch transform="matrix(2 0 0 2 -.5 -.5)"><foreignObject pointer-events="none" width="100%" height="100%" requiredFeatures="http://www.w3.org/TR/SVG11/feature#Extensibility" style="overflow:visible;text-align:left"><div xmlns="http://www.w3.org/1999/xhtml" style="display:flex;align-items:unsafe center;justify-content:unsafe center;width:58px;height:1px;padding-top:175px;margin-left:36px"><div data-drawio-colors="color: rgb(0, 0, 0);" style="box-sizing:border-box;font-size:0;text-align:center"><div style="display:inline-block;font-size:12px;font-family:Helvetica;color:#000;line-height:1.2;pointer-events:all;white-space:normal;overflow-wrap:normal">RAID 1</div></div></div></foreignObject><text x="65" y="179" font-family="Helvetica" font-size="12" text-anchor="middle">RAID 1</text></switch><path d="M650.06 330v-20h-60v-40M650.06 330v-20h60v-40" fill="none" stroke="#000" stroke-width="2" stroke-miterlimit="10" pointer-events="stroke"/><path fill="none" pointer-events="all" d="M590 330h120v40H590z"/><switch transform="matrix(2 0 0 2 -.5 -.5)"><foreignObject pointer-events="none" width="100%" height="100%" requiredFeatures="http://www.w3.org/TR/SVG11/feature#Extensibility" style="overflow:visible;text-align:left"><div xmlns="http://www.w3.org/1999/xhtml" style="display:flex;align-items:unsafe center;justify-content:unsafe center;width:58px;height:1px;padding-top:175px;margin-left:296px"><div data-drawio-colors="color: rgb(0, 0, 0);" style="box-sizing:border-box;font-size:0;text-align:center"><div style="display:inline-block;font-size:12px;font-family:Helvetica;color:#000;line-height:1.2;pointer-events:all;white-space:normal;overflow-wrap:normal">RAID 1</div></div></div></foreignObject><text x="325" y="179" font-family="Helvetica" font-size="12" text-anchor="middle">RAID 1</text></switch><path d="M390.06 50v20h-260v20M390.06 50v20h260v20" fill="none" stroke="#000" stroke-width="2" stroke-miterlimit="10" pointer-events="stroke"/><path d="M390.06 50v40-40L390 90" fill="none" stroke="#000" stroke-width="2" stroke-miterlimit="10" pointer-events="stroke"/><path fill="none" pointer-events="all" d="M330 10h120v40H330z"/><switch transform="matrix(2 0 0 2 -.5 -.5)"><foreignObject pointer-events="none" width="100%" height="100%" requiredFeatures="http://www.w3.org/TR/SVG11/feature#Extensibility" style="overflow:visible;text-align:left"><div xmlns="http://www.w3.org/1999/xhtml" style="display:flex;align-items:unsafe center;justify-content:unsafe center;width:58px;height:1px;padding-top:15px;margin-left:166px"><div data-drawio-colors="color: rgb(0, 0, 0);" style="box-sizing:border-box;font-size:0;text-align:center"><div style="display:inline-block;font-size:12px;font-family:Helvetica;color:#000;line-height:1.2;pointer-events:all;white-space:normal;overflow-wrap:normal">RAID 0</div></div></div></foreignObject><text x="195" y="19" font-family="Helvetica" font-size="12" text-anchor="middle">RAID 0</text></switch><path d="M130.06 330v-20h-60L70 270" fill="none" stroke="#000" stroke-width="2" stroke-miterlimit="10" pointer-events="stroke"/><path fill="none" pointer-events="all" d="M330 330h120v40H330z"/><switch transform="matrix(2 0 0 2 -.5 -.5)"><foreignObject pointer-events="none" width="100%" height="100%" requiredFeatures="http://www.w3.org/TR/SVG11/feature#Extensibility" style="overflow:visible;text-align:left"><div xmlns="http://www.w3.org/1999/xhtml" style="display:flex;align-items:unsafe center;justify-content:unsafe center;width:58px;height:1px;padding-top:175px;margin-left:166px"><div data-drawio-colors="color: rgb(0, 0, 0);" style="box-sizing:border-box;font-size:0;text-align:center"><div style="display:inline-block;font-size:12px;font-family:Helvetica;color:#000;line-height:1.2;pointer-events:all;white-space:normal;overflow-wrap:normal">RAID 1</div></div></div></foreignObject><text x="195" y="179" font-family="Helvetica" font-size="12" text-anchor="middle">RAID 1</text></switch><path d="M390.06 330v-20h60l-.06-40M390.06 330v-20h-60l-.06-40" fill="none" stroke="#000" stroke-width="2" stroke-miterlimit="10" pointer-events="stroke"/><switch><a transform="translate(0 -5)" xlink:href="https://www.drawio.com/doc/faq/svg-export-text-problems" target="_blank"><text text-anchor="middle" font-size="10" x="50%" y="100%">Text is not SVG - cannot display</text></a></switch></svg>

<?xml version="1.0" encoding="UTF-8"?>
<!DOCTYPE svg PUBLIC "-//W3C//DTD SVG 1.1//EN" "http://www.w3.org/Graphics/SVG/1.1/DTD/svg11.dtd">
<svg xmlns="http://www.w3.org/2000/svg" xmlns:xlink="http://www.w3.org/1999/xlink" version="1.1" width="782px" height="380px" viewBox="-0.5 -0.5 782 380" style="background-color: rgb(255, 255, 255);"><defs/><g><rect x="270" y="90" width="240" height="200" fill="rgb(255, 255, 255)" stroke="#b3b3b3" stroke-width="2" stroke-dasharray="6 6" pointer-events="all"/><rect x="10" y="90" width="240" height="200" fill="rgb(255, 255, 255)" stroke="#b3b3b3" stroke-width="2" stroke-dasharray="6 6" pointer-events="all"/><path d="M 30 140 C 30 123.43 47.91 110 70 110 C 80.61 110 90.78 113.16 98.28 118.79 C 105.79 124.41 110 132.04 110 140 L 110 240 C 110 256.57 92.09 270 70 270 C 47.91 270 30 256.57 30 240 Z" fill="#ff3333" stroke="rgb(0, 0, 0)" stroke-width="2" stroke-miterlimit="10" pointer-events="all"/><path d="M 110 140 C 110 156.57 92.09 170 70 170 C 47.91 170 30 156.57 30 140" fill="none" stroke="rgb(0, 0, 0)" stroke-width="2" stroke-miterlimit="10" pointer-events="all"/><path d="M 150 140 C 150 123.43 167.91 110 190 110 C 200.61 110 210.78 113.16 218.28 118.79 C 225.79 124.41 230 132.04 230 140 L 230 240 C 230 256.57 212.09 270 190 270 C 167.91 270 150 256.57 150 240 Z" fill="#99ff33" stroke="rgb(0, 0, 0)" stroke-width="2" stroke-miterlimit="10" pointer-events="all"/><path d="M 230 140 C 230 156.57 212.09 170 190 170 C 167.91 170 150 156.57 150 140" fill="none" stroke="rgb(0, 0, 0)" stroke-width="2" stroke-miterlimit="10" pointer-events="all"/><path d="M 290 140 C 290 123.43 307.91 110 330 110 C 340.61 110 350.78 113.16 358.28 118.79 C 365.79 124.41 370 132.04 370 140 L 370 240 C 370 256.57 352.09 270 330 270 C 307.91 270 290 256.57 290 240 Z" fill="#99ff33" stroke="rgb(0, 0, 0)" stroke-width="2" stroke-miterlimit="10" pointer-events="all"/><path d="M 370 140 C 370 156.57 352.09 170 330 170 C 307.91 170 290 156.57 290 140" fill="none" stroke="rgb(0, 0, 0)" stroke-width="2" stroke-miterlimit="10" pointer-events="all"/><rect x="530" y="90" width="240" height="200" fill="rgb(255, 255, 255)" stroke="#b3b3b3" stroke-width="2" stroke-dasharray="6 6" pointer-events="all"/><path d="M 410 140 C 410 123.43 427.91 110 450 110 C 460.61 110 470.78 113.16 478.28 118.79 C 485.79 124.41 490 132.04 490 140 L 490 240 C 490 256.57 472.09 270 450 270 C 427.91 270 410 256.57 410 240 Z" fill="#ff3333" stroke="rgb(0, 0, 0)" stroke-width="2" stroke-miterlimit="10" pointer-events="all"/><path d="M 490 140 C 490 156.57 472.09 170 450 170 C 427.91 170 410 156.57 410 140" fill="none" stroke="rgb(0, 0, 0)" stroke-width="2" stroke-miterlimit="10" pointer-events="all"/><path d="M 550 140 C 550 123.43 567.91 110 590 110 C 600.61 110 610.78 113.16 618.28 118.79 C 625.79 124.41 630 132.04 630 140 L 630 240 C 630 256.57 612.09 270 590 270 C 567.91 270 550 256.57 550 240 Z" fill="#99ff33" stroke="rgb(0, 0, 0)" stroke-width="2" stroke-miterlimit="10" pointer-events="all"/><path d="M 630 140 C 630 156.57 612.09 170 590 170 C 567.91 170 550 156.57 550 140" fill="none" stroke="rgb(0, 0, 0)" stroke-width="2" stroke-miterlimit="10" pointer-events="all"/><path d="M 670 140 C 670 123.43 687.91 110 710 110 C 720.61 110 730.78 113.16 738.28 118.79 C 745.79 124.41 750 132.04 750 140 L 750 240 C 750 256.57 732.09 270 710 270 C 687.91 270 670 256.57 670 240 Z" fill="#ff3333" stroke="rgb(0, 0, 0)" stroke-width="2" stroke-miterlimit="10" pointer-events="all"/><path d="M 750 140 C 750 156.57 732.09 170 710 170 C 687.91 170 670 156.57 670 140" fill="none" stroke="rgb(0, 0, 0)" stroke-width="2" stroke-miterlimit="10" pointer-events="all"/><path d="M 130.06 330 L 130.06 310 L 190.06 310 L 190.06 270" fill="none" stroke="rgb(0, 0, 0)" stroke-width="2" stroke-miterlimit="10" pointer-events="stroke"/><rect x="70" y="330" width="120" height="40" fill="none" stroke="none" pointer-events="all"/><g transform="translate(-0.5 -0.5)scale(2)"><switch><foreignObject pointer-events="none" width="100%" height="100%" requiredFeatures="http://www.w3.org/TR/SVG11/feature#Extensibility" style="overflow: visible; text-align: left;"><div xmlns="http://www.w3.org/1999/xhtml" style="display: flex; align-items: unsafe center; justify-content: unsafe center; width: 58px; height: 1px; padding-top: 175px; margin-left: 36px;"><div data-drawio-colors="color: rgb(0, 0, 0); " style="box-sizing: border-box; font-size: 0px; text-align: center;"><div style="display: inline-block; font-size: 12px; font-family: Helvetica; color: rgb(0, 0, 0); line-height: 1.2; pointer-events: all; white-space: normal; overflow-wrap: normal;">RAID 1</div></div></div></foreignObject><text x="65" y="179" fill="rgb(0, 0, 0)" font-family="Helvetica" font-size="12px" text-anchor="middle">RAID 1</text></switch></g><path d="M 650.06 330 L 650.06 310 L 590.06 310 L 590.06 270" fill="none" stroke="rgb(0, 0, 0)" stroke-width="2" stroke-miterlimit="10" pointer-events="stroke"/><path d="M 650.06 330 L 650.06 310 L 710.06 310 L 710.06 270" fill="none" stroke="rgb(0, 0, 0)" stroke-width="2" stroke-miterlimit="10" pointer-events="stroke"/><rect x="590" y="330" width="120" height="40" fill="none" stroke="none" pointer-events="all"/><g transform="translate(-0.5 -0.5)scale(2)"><switch><foreignObject pointer-events="none" width="100%" height="100%" requiredFeatures="http://www.w3.org/TR/SVG11/feature#Extensibility" style="overflow: visible; text-align: left;"><div xmlns="http://www.w3.org/1999/xhtml" style="display: flex; align-items: unsafe center; justify-content: unsafe center; width: 58px; height: 1px; padding-top: 175px; margin-left: 296px;"><div data-drawio-colors="color: rgb(0, 0, 0); " style="box-sizing: border-box; font-size: 0px; text-align: center;"><div style="display: inline-block; font-size: 12px; font-family: Helvetica; color: rgb(0, 0, 0); line-height: 1.2; pointer-events: all; white-space: normal; overflow-wrap: normal;">RAID 1</div></div></div></foreignObject><text x="325" y="179" fill="rgb(0, 0, 0)" font-family="Helvetica" font-size="12px" text-anchor="middle">RAID 1</text></switch></g><path d="M 390.06 50 L 390.06 70 L 130.06 70 L 130.06 90" fill="none" stroke="rgb(0, 0, 0)" stroke-width="2" stroke-miterlimit="10" pointer-events="stroke"/><path d="M 390.06 50 L 390.06 70 L 650.06 70 L 650.06 90" fill="none" stroke="rgb(0, 0, 0)" stroke-width="2" stroke-miterlimit="10" pointer-events="stroke"/><path d="M 390.06 50 L 390.06 90 L 390.06 50 L 390 90" fill="none" stroke="rgb(0, 0, 0)" stroke-width="2" stroke-miterlimit="10" pointer-events="stroke"/><rect x="330" y="10" width="120" height="40" fill="none" stroke="none" pointer-events="all"/><g transform="translate(-0.5 -0.5)scale(2)"><switch><foreignObject pointer-events="none" width="100%" height="100%" requiredFeatures="http://www.w3.org/TR/SVG11/feature#Extensibility" style="overflow: visible; text-align: left;"><div xmlns="http://www.w3.org/1999/xhtml" style="display: flex; align-items: unsafe center; justify-content: unsafe center; width: 58px; height: 1px; padding-top: 15px; margin-left: 166px;"><div data-drawio-colors="color: rgb(0, 0, 0); " style="box-sizing: border-box; font-size: 0px; text-align: center;"><div style="display: inline-block; font-size: 12px; font-family: Helvetica; color: rgb(0, 0, 0); line-height: 1.2; pointer-events: all; white-space: normal; overflow-wrap: normal;">RAID 0</div></div></div></foreignObject><text x="195" y="19" fill="rgb(0, 0, 0)" font-family="Helvetica" font-size="12px" text-anchor="middle">RAID 0</text></switch></g><path d="M 130.06 330 L 130.06 310 L 70.06 310 L 70 270" fill="none" stroke="rgb(0, 0, 0)" stroke-width="2" stroke-miterlimit="10" pointer-events="stroke"/><rect x="330" y="330" width="120" height="40" fill="none" stroke="none" pointer-events="all"/><g transform="translate(-0.5 -0.5)scale(2)"><switch><foreignObject pointer-events="none" width="100%" height="100%" requiredFeatures="http://www.w3.org/TR/SVG11/feature#Extensibility" style="overflow: visible; text-align: left;"><div xmlns="http://www.w3.org/1999/xhtml" style="display: flex; align-items: unsafe center; justify-content: unsafe center; width: 58px; height: 1px; padding-top: 175px; margin-left: 166px;"><div data-drawio-colors="color: rgb(0, 0, 0); " style="box-sizing: border-box; font-size: 0px; text-align: center;"><div style="display: inline-block; font-size: 12px; font-family: Helvetica; color: rgb(0, 0, 0); line-height: 1.2; pointer-events: all; white-space: normal; overflow-wrap: normal;">RAID 1</div></div></div></foreignObject><text x="195" y="179" fill="rgb(0, 0, 0)" font-family="Helvetica" font-size="12px" text-anchor="middle">RAID 1</text></switch></g><path d="M 390.06 330 L 390.06 310 L 450.06 310 L 450 270" fill="none" stroke="rgb(0, 0, 0)" stroke-width="2" stroke-miterlimit="10" pointer-events="stroke"/><path d="M 390.06 330 L 390.06 310 L 330.06 310 L 330 270" fill="none" stroke="rgb(0, 0, 0)" stroke-width="2" stroke-miterlimit="10" pointer-events="stroke"/></g><switch><g requiredFeatures="http://www.w3.org/TR/SVG11/feature#Extensibility"/><a transform="translate(0,-5)" xlink:href="https://www.drawio.com/doc/faq/svg-export-text-problems" target="_blank"><text text-anchor="middle" font-size="10px" x="50%" y="100%">Text is not SVG - cannot display</text></a></switch></svg>
